X:1
T:In convertendo - Nanino
T:#
%%score { 1 | 2 } 3 4
L:1/8
Q:1/4=130
M:4/4
K:Bb
V:1 treble nm="Soprano I" snm="S"
V:2 treble 
V:3 treble nm="Alto" snm="A"
V:4 treble nm="Bass" snm="B"
V:1
"^In convertendo""^Bernardino Nanino\n(1560-1623)""^Psalm 126 (125 Vulgate)" F2 G2 F2 F2 B8 B2 c4 | %1
w: In con- ver- ten- do~Dominus~captivitatem Si- on:|
 B8 A2 B2 G2 F4 |[Q:1/4=160][Q:1/4=160][Q:1/4=160] d12 d4 | f4 f2 f2 g6 g2 | f4 f4 (e2 d2 e2 c2 | %5
w: facti~sumus~sicut con- so- la- ti.|Tunc re-|ple- tum est gau- di-|o os no\- * * *|
 d8) c4 c4 | (c2 B2 B8 A4) |[M:4/2] B8 z4 f4 | (d12 A2 B2 | c8) c8 | z4 c4 c4 c4 | d8 d8 | %12
w: * strum, os|no\- * * *|strum, os|no\- * *|* strum:|et lin- gua|no- stra|
 z4 f2 f2 d2 e2 (f4- | f2 ed c2 d2 e2 d2 d2 cB | c8) d4 f4 | f4 f4 g8 | g4 g2 g2 e2 f2 g4- | %17
w: e- xul- ta- ti- o\-||* ne, et|lin- gua no-|stra e- xul- ta- ti- o\-|
 (g4 f3 e f4) f4 | z8 B2 B2 d2 e2 | (f6 ed c6 d2 | e4 B2 c2 d3 c B2 A2) | c8 c16 || %22
w: * * * * ne,|e- xul- ta- ti-|o\- * * * *||* ne.|
[Q:1/4=130][Q:1/4=130][Q:1/4=130] F2 G2 F2 F2 B2 B2 c4 | B8 A2 B2 G2 F4 | %24
w: ~Tunc di- cent in- ter gen- tes:|Magnificavit~Dominus~face- re cum e- is.|
[Q:1/4=160][Q:1/4=160][Q:1/4=160] B8 B4 B4 | B4 c4 d6 d2 | d4 e8 e4 | d6 d2 c8 | c12 z4 | %29
w: Ma- gni- fi-|ca- vit Do- mi-|nus fa- ce-|re no- bi-|scum:|
[M:4/2] c2 c2 c4 B2 G2 (d3 e | f6 ed c2 d2 e4- | e4 d2 c2) d8 | e2 e2 c4 d4 B2 B2 | %33
w: fa- cti su- mus lae- tan\- *||* * * tes,|fa- cti su- mus, fa- cti|
 B4 A2 F2 (c3 d e4- | e2 dc d2 e2 f4 F4 | G8) !fermata!A16 || %36
w: su- mus lae- tan\- * *||* tes.|
[Q:1/4=130][Q:1/4=130][Q:1/4=130] F2 G2 F2 F8 B2 c4 | B8 A2 B2 G2 F4 | %38
w: Con- ver- te, Domine,~captivitatem no- stram,|sicut~tor- rens in au- stro.|
[Q:1/4=160][Q:1/4=160][Q:1/4=160] F8 B6 B2 | B4 c4 d8- | d4 d4 c4 c4 | d6 d2 e4 (B4- | %42
w: Qui se- mi-|nant in la\-|* cry- mis, qui|se- mi- nant in|
 B2 AG _A4) G8- |[M:4/2] G4 G4 G8- | G8 z8 | z2 B2 B2 B2 A2 F2 ABcA | Bcde f2 d2 (cBAB c4-) | %47
w: * * * * la\-|* cry- mis,||in e- xul- ta- ti- o\- * * *|* * * * * ne me\- * * * *|
 (c2 B2 B6 AG A4) | B2 d2 d2 d2 c2 A2 c4 | d3 c B3 A G4 c4- | c8 c16 || %51
w: |tent, in e- xul- ta- ti- o-|ne * * * * me\-|* tent.|
[Q:1/4=130][Q:1/4=130][Q:1/4=130] F2 G2 F2 F8 B2 c4 | B8 A2 B2 G2 F4 | %53
w: E- un- tes ibant~et fle- bant,|mittentes~se- mi- na su- a.|
[Q:1/4=160][Q:1/4=160][Q:1/4=160] z8 d6 e2 | f4 d4 e4 c4 | d6 d2 d8 | z4 f4 e2 e2 e2 e2 | d8 c8 | %58
w: Ve- ni-|en- tes au- tem|ve- ni- ent|cum e- xul- ta- ti-|o- ne,|
 z4 c4 B2 B2 B2 B2 |[M:4/2] A8 B8 | z4 f4 e2 e2 e2 e2 | d8 e4 z2 c2 | B2 BA G3 G A4 (B3 A) | %63
w: cum e- xul- ta- ti-|o- ne,|cum e- xul- ta- ti-|o- ne, por-|tan- tes ma- ni- pu- los su\- *|
 (GFGA B8) F4 | z2 f2 e2 ed c3 c d4 | c4 c2 f2 d2 dc B2 B2 | c4 z2 d2 c2 cB A4- | A2 A2 =B4 c8- | %68
w: * * * * * os,|por- tan- tes ma- ni- pu- los|su- os, por- tan- tes ma- ni- pu-|los, por- tan- tes ma- ni\-|* pu- los su\-|
 c8 c16 ||[Q:1/4=130][Q:1/4=130][Q:1/4=130] F2 G2 F2 F8 B2 c4 | B4 A2 B2 G2 F4 | %71
w: * os.|Glo- ri- a Patri,~et~Fi- li- o,|et~Spiri- tu- i san- cto:|
[Q:1/4=160][Q:1/4=160][Q:1/4=160] (B6 c2 d4) =e4 | f8 B8 | c4 c4 d6 d2 | d4 c4 d6 e2 | f8 f8- | %76
w: Si\- * * cut|e- rat|in prin- ci- pi-|o, et nunc, et|sem- per,|
[M:4/2] f4 e4 d4 c4 | d8 d8 | z4 =B8 c4 | d6 d2 d4 z4 | d2 e2 f8 e4 | d8 e8 | c4 f4 e6 e2 | %83
w: * et nunc, et|sem- per|et in|sae- cu- la|sae- cu- lo- rum,|A- men,|et in sae- cu-|
[Q:1/4=155] B12[Q:1/4=149] d2[Q:1/4=148] e2 |[Q:1/4=145] f6[Q:1/4=142] c2[Q:1/4=138] c8 | %85
w: la sae- cu-|lo- rum, A-|
[Q:1/4=136] c16 |] %86
w: men.|
V:2
 x22 | x18 | B12 B4 | c4 d2 d2 e6 e2 | d8 z8 | x4 f4 (e2 d2 e2 c2 | d6 cB c8) |[M:4/2] d8 z4 c4 | %8
w: ||Tunc re-|ple- tum est gau- di-|o|os no\- * * *||strum, os|
 (B2 A2 B2 G2 A6 GF | G8) A8 | z4 A4 G4 A4 | B8 B4 d2 d2 | B2 c2 (d6 cB A2 B2 | c6 BA GFGA B4- | %14
w: no\- * * * * * *|* strum:|et lin- gua|no- stra e- xul-|ta- ti- o\- * * * *||
 B2 AG A4) B4 d4 | c4 d4 e8 | e4 e2 e2 c2 d2 (e2 dc) | (B2 c2 d6 cB A2 B2 | c8) B8 | %19
w: * * * * ne, et|lin- gua no-|stra e- xul- ta- ti- o\- * *||* ne,|
 z8 F2 F2 A2 B2 | (c2 BA G2 A2 B2 A2 G2 F2 | G8) A16 || x16 | x18 | F8 G6 G2 | G4 A4 B6 B2 | %26
w: e- xul- ta- ti-|o\- * * * * * * * *|* ne.|||Ma- gni- fi-|ca- vit Do- mi-|
 B4 B8 c4 | A4 B4 G8 | A16 |[M:4/2] z8 B2 B2 B4 | A2 F2 (c3 d e6 dc | B2 G2 c8) =B4 | %32
w: nus fa- ce-|re no- bi-|scum:|fa- cti su-|mus lae- tan\- * * * *|* * * tes,|
 c2 c2 c4 B2 G2 (d3 e | f2 ed c4) A4 z4 | G2 G2 G4 F2 D2 A3 B | c8 !fermata!c16 || x20 | x18 | %38
w: fa- cti su- mus lae- tan\- *|* * * * tes,|fa- cti su- mus lae- tan\- *|* tes.|||
 z16 | z16 | z8 z4 F4- | F4 B6 B2 B4 | c4 (d6 c2 c4-) |[M:4/2] c4 =B4 c8 | %44
w: ||Qui|* se- mi- nant|in la\- * *|* cry- mis,|
 z2 c2 c2 c2 A2 F2 (ABcA | Bcde f4) c4 z2 f2 | f2 f2 d2 B2 f6 e2 | (d4 c2 B2 c8) | %48
w: in e- xul- ta- ti- o\- * * *|* * * * * ne in|e- xul- ta- ti- o- ne|me\- * * *|
 B2 B2 B2 B2 A2 F2 (ABcA | Bcde f2) d2 (c3 B A2 GF | G8) A16 || x20 | x18 | z16 | z16 | z4 B8 B4 | %56
w: tent, in e- xul- ta- ti- o\- * * *|* * * * * ne me\- * * * *|* tent.|||||Ve- ni-|
 A4 B4 G4 A4 | B6 F2 F4 f4 | e2 e2 e2 e2 d8- |[M:4/2] d8 d4 d4 | c2 c2 c2 c2 (=B4 c4- | %61
w: en- tes au- tem|ve- ni- ent cum|e- xul- ta- ti- o\-|* ne, cum|e- xul- ta- ti- o\- *|
 c2 =BA B4) c4 z2 e2 | d2 dc B3 B c4 d4 | c4 z2 f2 e2 ed c3 c | d4 z4 z2 (c3 B B2- | %65
w: * * * * ne, por-|tan- tes ma- ni- pu- los su-|os, por- tan- tes ma- ni- pu-|los su\- * *|
 B2 AG A4) (B3 c d3 e) | f2 c2 B2 BA G3 G c4 | z4 z2 d2 c2 cB A2 AA | G8 A16 || x20 | x14 | %71
w: * * * * os, * * *|* por- tan- tes ma- ni- pu- los,|por- tan- tes ma- ni- pu- los|su- os.|||
 (d6 e2 f4) B4 | c8 d4 B4- | B4 A4 B6 B2 | B4 c4 c4 B4 | c8 c4 c4 |[M:4/2] d4 c4 (B4 A2 G2 | %77
w: Si\- * * cut|e- rat in|* prin- ci- pi-|o, et nunc, et|sem- per, et|nunc, et sem\- * *|
 A8) =B8 | z4 d4 =e4 f4- | f4 f4 f4 d2 c2 | B4 F4 (A2 B2 c4-) | (c4 =B4) c4 e4- | e4 d4 G6 G2 | %83
w: * per|et in sae\-|* cu- la sae- cu-|lo- rum, A\- * *|* * men, et|* in sae- cu-|
 G4 z4 G2 A2 B4- | B4 A4 G8 | A16 |] %86
w: la sae- cu- lo\-|* rum, A-|men.|
V:3
[K:C] z22 | z18 |[K:Bb][K:treble] F12 G4 | A4 A2 A2 B6 B2 | B4 F4 (G2 F2 G2 A2 | B2 AG F2 G2 _A8 | %6
w: ||Tunc re-|ple- tum est gau- di-|o os no\- * * *||
 G8 F8) |[M:4/2] (B,2 C2 D2 E2 F8) | z2 D2 (G6 F2 F4- | F4 =E4) F8 | z4 F4 =E4 F4 | F8 F4 B2 B2 | %12
w: |strum, * * * *|os no\- * *|* * strum:|et lin- gua|no- stra e- xul-|
 G2 A2 (B6 AG F2 G2 | _A6 GF E3 F G4) | F8 z4 B4 | A4 B4 B8 | B8 z8 | z4 B,2 B,2 D2 E2 (F4- | %18
w: ta- ti- o\- * * * *||ne, et|lin- gua no-|stra|e- xul- ta- ti- o\-|
 F2 ED C4) D4 G2 G2 | A2 F2 (B6 A2 A4- | A2 G2 G6 F2 F4- | F4 =E4) F16 || z16 | z18 | D8 E6 E2 | %25
w: * * * * ne, e- xul-|ta- ti- o\- * *||* * ne.|||Ma- gni- fi-|
 D4 F4 F6 F2 | F4 G8 G4 | F4 F2 (F4 =ED E4) | F8 z4 F2 F2 |[M:4/2] F4 E2 C2 (G3 A B2 AG | %30
w: ca- vit Do- mi-|nus fa- ce-|re no- bi\- * * *|scum: fa- cti|su- mus lae- tan\- * * * *|
 F3 G _A6 GF E2 F2 | G8) G4 G2 G2 | G4 E2 C2 (GABA G4) | F4 F2 F2 F4 E2 C2 | (G3 A B6 A2 A2 GF | %35
w: |* tes, fa- cti|su- mus lae- tan\- * * * *|tes, fa- cti su- mus lae-|tan\- * * * * * *|
 =E2 F4 E2) !fermata!F16 || z20 | z18 | z4 B,8 E4- | E2 E2 E4 F4 (G2 F2 | G2 A2 B8) A4 | %41
w: * * * tes.|||Qui se\-|* mi- nant in la\- *|* * * cry-|
 B4 F4 G6 G2 | G4 (F4 E4 D2 C2) |[M:4/2] D6 D2 =E8- | E8 z2 F2 F2 F2 | D2 B,2 D3 E F8 | %46
w: mis, qui se- mi-|nant in la\- * *|* cry- mis,|* in e- xul-|ta- ti- o- ne me-|
 B,2 B2 B2 B2 A2 F2 (ABcA) | B4 G4 F8 | F8 z2 F2 F2 F2 | D2 B,2 (DEFD EF G3) F (F2- | %50
w: tent, in e- xul- ta- ti- o\- * * *|* ne me-|tent, in e- xul-|ta- ti- o\- * * * * * * ne me\-|
 F2 =ED E4) F16 || z20 | z18 | B12 B4 | A4 B4 G4 A4 | B6 B2 F8- | F8 z8 | z4 B4 _A2 A2 A2 A2 | %58
w: * * * * tent.|||Ve- ni-|en- tes au- tem|ve- ni- ent||cum e- xul- ta- ti-|
 G8 G4 G4 |[M:4/2] ^F3 F F2 F2 (G2 =FE D3 E | F2 ED C4) G8- | G16 | z4 z2 G2 F2 FE D3 D | %63
w: o- ne, cum|e- xul- ta- ti- o\- * * * *|* * * * ne,||por- tan- tes ma- ni- pu-|
 E4 F4 G4 z2 c2 | B2 BA G3 G A4 B4 | F6 F2 B2 BA G2 GG | A4 F4 z2 G2 F4- | F2 FE D3 D =E4 (F4- | %68
w: los su- os, por-|tan- tes ma- ni- pu- los su-|os, por- tan- tes ma- ni- pu- los|su- os, por- tan\-|* tes ma- ni- pu- los su\-|
 F4 =E4) F16 || z20 | z14 | F8 B8 | A8 F4 G4- | G4 E4 F6 F2 | F4 G4 A4 B4 | (B4 A2 G2 A8) | %76
w: * * os.|||Si- cut|e- rat in|* prin- ci- pi-|o, et nunc, et|sem\- * * *|
[M:4/2] B2 F2 A6 G2 (G4- | G4 ^F4) G8 | z4 G8 A4 | B6 B2 B8- | B4 A2 G2 F4 C4 | G8 G4 G4 | %82
w: per, et nunc, et sem\-|* * per|et in|sae- cu- la|* sae- cu- lo- rum,|A- men, et|
 A4 B8 B4 | B4 G2 F2 E4 B,4 | (D2 E2 F8 =E4) | F16 |] %86
w: in sae- cu-|la sae- cu- lo- rum,|A\- * * *|men.|
V:4
[K:C] z22 | z18 |[K:Bb][K:bass] B,12 G,4 | F,4 F,2 F,2 E,6 E,2 | B,,8 z8 | z16 | z16 | %7
w: ||Tunc re-|ple- tum est gau- di-|o|||
[M:4/2] z4 (B,4 A,2 G,2 A,2 F,2 | G,6 F,E, D,8 | C,8) F,8 | z4 F,4 C,4 F,4 | B,,8 B,,8 | z16 | %13
w: os no\- * * *||* strum:|et lin- gua|no- stra,||
 z16 | z8 B,8 | F,4 B,4 E,8 | E,8 z4 E,2 E,2 | G,2 A,2 (B,6 A,G, F,2 G,2 | _A,8) G,8 | %19
w: |et|lin- gua no-|stra e- xul-|ta- ti- o\- * * * *|* ne,|
 F,2 F,2 D,2 E,2 (F,6 E,D, | C,2 D,2 E,4 D,8 | C,8) F,16 || z16 | z18 | B,8 E,4 E,4 | %25
w: e- xul- ta- ti- o\- * *||* ne.|||Ma- gni- fi-|
 G,4 F,4 B,6 B,2 | B,4 E,8 C,4 | D,4 B,,4 C,8 | F,16 |[M:4/2] z16 | z16 | z8 G,2 G,2 G,4 | %32
w: ca- vit Do- mi-|nus fa- ce-|re no- bi-|scum:|||fa- cti su-|
 E,2 C,2 _A,4 (G,6 F,E, | D,2 E,2 F,8) C2 C2 | C4 B,2 G,2 (D,3 E, F,2 E,D, | C,8) !fermata!F,16 || %36
w: mus lae- tan- tes, * *|* * * fa- cti|su- mus lae- tan\- * * * *|* tes.|
 z20 | z18 | z16 | z16 | z16 | B,,8 E,6 E,2 | E,4 F,4 G,8- |[M:4/2] G,4 G,4 C,8- | C,8 z8 | z16 | %46
w: |||||Qui se- mi-|nant in la\-|* cry- mis,|||
 z16 | z8 z2 F,2 F,2 F,2 | D,2 B,,2 (D,3 E, F,8) | B,,8 C,8- | C,8 F,16 || z20 | z18 | z16 | z16 | %55
w: |in e- xul-|ta- ti- o\- * *|ne me\-|* tent.|||||
 z8 D,6 E,2 | F,4 D,4 E,4 C,4 | B,,6 B,,2 F,8 | z4 C,4 G,2 G,2 G,2 G,2 |[M:4/2] D,8 G,4 B,4 | %60
w: Ve- ni-|en- tes au- tem|ve- ni- ent|cum e- xul- ta- ti-|o- ne, cum|
 _A,2 A,2 A,2 A,2 G,8- | G,8 C,8 | z16 | z2 C2 B,2 B,A, G,3 G, A,4 | (B,4 C4) F,4 z4 | %65
w: e- xul- ta- ti- o\-|* ne,||por- tan- tes ma- ni- pu- los|su\- * os,|
 z8 z4 z2 G,2 | F,2 F,E, D,3 D, E,4 (F,3 E, | D,8 A,,6 B,,2 | C,8) F,16 || z20 | z14 | B,12 G,4 | %72
w: por-|tan- tes ma- ni- pu- los su\- *||* os.|||Si- cut|
 F,8 D,4 E,4- | E,4 C,4 B,,6 B,,2 | B,,4 E,4 F,4 G,4 | F,8 F,8 |[M:4/2] z4 C,4 D,4 E,4 | D,8 G,,8 | %78
w: e- rat in|* prin- ci- pi-|o, et nunc, et|sem- per,|et nunc, et|sem- per|
 G,12 F,4 | B,6 B,2 B,8 | z16 | z8 C,8- | C,4 D,4 E,6 E,2 | E,12 D,2 C,2 | B,,4 F,,4 C,8 | F,16 |] %86
w: et in|sae- cu- la,||et|* in sae- cu-|la sae- cu-|lo- rum, A-|men.|

